X:1
T:Title
%%score { ( 1 3 ) | ( 2 4 ) }
L:1/8
Q:1/4=100
M:4/4
K:Db
V:1 treble nm="Grand Piano"
V:3 treble 
V:2 bass 
V:4 bass 
V:1
 [FA]2 F>E DEF[EG] | [FA]6 [FA]2 | [GB]2 [GB]2 [FA][Fd][Ec][DEB] | [CEA]6 z2 | %4
w: C.~M.~Seamans * * * * * *||||
 [DFA]2 [A,DF]>[K:bass][G,A,E] [F,A,D][G,A,E][K:treble][A,DF][A,EG] | [DFA]6 [DGB]2 | %6
w: ||
 [DFA]3 [DF] [A,CE][CG][K:bass][E,A,C][G,A,E] | [F,A,D]6 z2 | [FA]4 [DF]2 z2 | %9
w: |||
 A-[DFA-][CGA-][EGA] [DFA]2 z2 | [EG]6 z2 | A,A,A,[EG] [FA]2 [FA]2 | [Fd][Fd][Fd][Ac] [GB]2 [AB]2 | %13
w: ||||
 z4 c4 | d2 AA B [Ge]3 | z2 c2 z4 |] %16
w: |||
V:2
 [D,D]2 [D,A,D]>[D,G,A,] [D,F,A,][D,G,A,][D,A,D][D,A,] | [D,D]6 [D,D]2 | %2
 [G,D]2 [G,D]2 [D,D][D,A,][E,A,]E, | A,,6 z2 | D,2 D,>D, D,D,D,D, | D,6 D,2 | %6
 A,3 A, A,,[A,,E,]A,,A,, | D,6 z2 | D,2 D,D, D,D, z G | D,F,E,A,, D,2 z2 | A,2 A,A, A,A,A,,A,, | %11
 D,D,D,[D,A,] [D,D]2 [D,D]2 | [D,A,][D,A,][D,A,][F,D] [G,D]2 [F,=D]2 | z4[K:treble] [CA]4 | %14
 [F,A,D]2 [F,DF][F,DF] [G,DG] [E,E]3 | [A,F]2 [A,,A,]2 [D,A,]4 |] %16
V:3
 x8 | x8 | x8 | x8 | x7/2[K:bass] x5/2[K:treble] x2 | x8 | x6[K:bass] x2 | x8 | D2 DD A,A,DB | %9
 .[DF]2 z2 z4 | C2 CC C[DF][A,CE][A,EG] | [DF]4 z4 | x8 | [Ge][Ge][Ge][Bd] z2 G,2 | x8 | %15
 d2 FG [Fd]4 |] %16
V:4
 x8 | x8 | x8 | x8 | x8 | x8 | x8 | x8 | x8 | x8 | x8 | x8 | x8 | %13
 [E,B,][E,B,][E,E][K:treble][=G,E] A,2 z2 | x8 | x8 |] %16

